icons/copper_iud.svg

<svg width="48" height="48" viewBox="0 0 48 48" fill="none" xmlns="http://www.w3.org/2000/svg">
<path d="M23 6L18.868 6L19.868 4H23C23.5523 4 24 4.44772 24 5C24 4.44772 24.4477 4 25 4H28.132L29.132 6L25 6V16.257L23 15.257V6Z" fill="black"/>
<path d="M10 5C10 5.55228 10.4477 6 11 6H12.632L13.632 4H11C10.4477 4 10 4.44772 10 5Z" fill="black"/>
<path d="M14.868 6L15.868 4H17.632L16.632 6H14.868Z" fill="black"/>
<path fill-rule="evenodd" clip-rule="evenodd" d="M20 40C20 38.1362 21.2748 36.5701 23 36.126V25.493L25 26.493V36.126C26.7252 36.5701 28 38.1362 28 40C28 42.2091 26.2091 44 24 44C21.7909 44 20 42.2091 20 40ZM24 38C22.8954 38 22 38.8954 22 40C22 41.1046 22.8954 42 24 42C25.1046 42 26 41.1046 26 40C26 38.8954 25.1046 38 24 38Z" fill="black"/>
<path d="M25 20.257L23 19.257V17.493L25 18.493V20.257Z" fill="black"/>
<path d="M25 22.493L23 21.493V23.257L25 24.257V22.493Z" fill="black"/>
<path d="M38 5C38 4.44772 37.5523 4 37 4H34.368L35.368 6H37C37.5523 6 38 5.55228 38 5Z" fill="black"/>
<path d="M31.368 6L30.368 4H32.132L33.132 6H31.368Z" fill="black"/>
</svg>

<svg
  xmlns="http://www.w3.org/2000/svg"
  width="24"
  height="24"
  viewBox="0 0 24 24"
  fill="none"
  stroke="currentColor"
  stroke-width="2"
  stroke-linecap="round"
  stroke-linejoin="round"
>
  <path d="M23 6h-4.132l1-2H23a1 1 0 0 1 1 1 1 1 0 0 1 1-1h3.132l1 2H25v10.257l-2-1z" />
  <path d="M10 5a1 1 0 0 0 1 1h1.632l1-2H11a1 1 0 0 0-1 1" />
  <path d="m14.868 6 1-2h1.764l-1 2z" />
  <path
    fill-rule="evenodd"
    d="M20 40a4 4 0 0 1 3-3.874V25.493l2 1v9.633A4.002 4.002 0 0 1 24 44a4 4 0 0 1-4-4m4-2a2 2 0 1 0 0 4 2 2 0 0 0 0-4"
    clip-rule="evenodd"
  />
  <path d="m25 20.257-2-1v-1.764l2 1z" />
  <path d="m25 22.493-2-1v1.764l2 1z" />
  <path d="M38 5a1 1 0 0 0-1-1h-2.632l1 2H37a1 1 0 0 0 1-1" />
  <path d="m31.368 6-1-2h1.764l1 2z" />
</svg>
